X:99 
T:Humors of Bottle Hill, The  
B:WSGM.182
F:file ID wsgm/099hbh
S:J.P.Walsh
Z:Kinder/Black
N:1:Part 1 of this is same as "Fig for a Kiss". See O'Neill's notes
on the previous tune "Splashing of the Churn".
N:2:For clarity of playback, I have replaced |nnn| with |n2n|
in measures 5,9, and 10 (replacements underlined)
M:9/8
L:1/8
R:slip jig
K:G
F|G2B E2B BAG|F2A D2A AGF|G2B E2B BAG|Bcd AGF E2:|
A|B2e e2e efg|f2d def afd|B2e e2f gfe|fef agf e2d|
B2e e2e efg|f2d d2d d2f|a2f g2e e2c|d2B AGF E3|]

